packages/swarm-icons/src/icons/solid/Announce.svg

<svg xmlns="http://www.w3.org/2000/svg" width="18" height="18" viewBox="0 0 18 18">
  <path fill="#A2A2A2" d="M10,15.5 L12.5,15.5 L12.5,16.5 L5.5,16.5 L5.5,15.5 L8,15.5 L8,13.3884918 C5.9960113,12.9337626 4.5,11.1415874 4.5,9 L4.5,7 L5.5,7 L5.5,9 C5.5,10.9329966 7.06700338,12.5 9,12.5 C10.9329966,12.5 12.5,10.9329966 12.5,9 L12.5,7 L13.5,7 L13.5,9 C13.5,11.1415874 12.0039887,12.9337626 10,13.3884918 L10,15.5 Z M9,1.5 C10.3807119,1.5 11.5,2.61928813 11.5,4 L11.5,9 C11.5,10.3807119 10.3807119,11.5 9,11.5 C7.61928813,11.5 6.5,10.3807119 6.5,9 L6.5,4 C6.5,2.61928813 7.61928813,1.5 9,1.5 Z"/>
</svg>

<svg xmlns="http://www.w3.org/2000/svg" width="18" height="18"><path fill="#A2A2A2" d="M10 15.5h2.5v1h-7v-1H8v-2.112A4.502 4.502 0 014.5 9V7h1v2a3.5 3.5 0 007 0V7h1v2a4.502 4.502 0 01-3.5 4.388V15.5zm-1-14A2.5 2.5 0 0111.5 4v5a2.5 2.5 0 11-5 0V4A2.5 2.5 0 019 1.5z"/></svg>
